packages/dnb-ui-lib/assets/icons/save_medium.svg

<svg width="24" height="24" viewBox="0 0 24 24" fill="none" xmlns="http://www.w3.org/2000/svg">
<path d="M9 7.5L12 10.5M12 10.5L15 7.5M12 10.5V0.75M19.5 20.25H4.5M18.5 17.25H17.5M2.25 23.25H21.75C22.5784 23.25 23.25 22.5784 23.25 21.75V15.75C23.25 14.9216 22.5784 14.25 21.75 14.25H2.25C1.42157 14.25 0.75 14.9216 0.75 15.75V21.75C0.75 22.5784 1.42157 23.25 2.25 23.25Z" stroke="black" stroke-width="1.5" stroke-linecap="round" stroke-linejoin="round"/>
</svg>

<svg width="24" height="24" viewBox="0 0 24 24" fill="none" xmlns="http://www.w3.org/2000/svg"><path d="M9 7.5l3 3m0 0l3-3m-3 3V.75m7.5 19.5h-15m14-3h-1m-15.25 6h19.5a1.5 1.5 0 001.5-1.5v-6a1.5 1.5 0 00-1.5-1.5H2.25a1.5 1.5 0 00-1.5 1.5v6a1.5 1.5 0 001.5 1.5z" stroke="#000" stroke-width="1.5" stroke-linecap="round" stroke-linejoin="round"/></svg>
